flaticon/hand-gestures/tap-19.svg

<svg xmlns="http://www.w3.org/2000/svg" width="32" height="32" viewBox="0 0 24 24">
    <path d="M 3.601562 6.398438 C 2.039062 6.398438 0.800781 5.160156 0.800781 3.601562 C 0.800781 2.039062 2.039062 0.800781 3.601562 0.800781 C 5.160156 0.800781 6.398438 2.039062 6.398438 3.601562 C 6.398438 3.855469 6.371094 4.097656 6.3125 4.332031 L 5.960938 3.800781 C 5.839844 3.601562 5.601562 3.558594 5.398438 3.679688 C 5.199219 3.800781 5.160156 4.039062 5.28125 4.238281 L 6.039062 5.378906 C 6.070312 5.449219 6.125 5.515625 6.199219 5.558594 C 6.242188 5.578125 6.285156 5.589844 6.332031 5.59375 C 6.351562 5.597656 6.375 5.601562 6.398438 5.601562 C 6.480469 5.601562 6.601562 5.601562 6.640625 5.558594 L 8.160156 4.71875 C 8.320312 4.640625 8.398438 4.398438 8.320312 4.199219 C 8.238281 4.039062 8 3.960938 7.800781 4.039062 L 7.125 4.378906 C 7.175781 4.132812 7.199219 3.871094 7.199219 3.601562 C 7.199219 1.601562 5.601562 0 3.601562 0 C 1.601562 0 0 1.601562 0 3.601562 C 0 5.601562 1.601562 7.199219 3.601562 7.199219 C 3.839844 7.199219 4 7.039062 4 6.800781 C 4 6.558594 3.839844 6.398438 3.601562 6.398438 Z M 3.601562 6.398438"/>
    <path d="M 22 8.398438 C 21.558594 8.398438 21.121094 8.558594 20.800781 8.800781 L 20.800781 8.398438 C 20.800781 7.28125 19.921875 6.398438 18.800781 6.398438 C 18.359375 6.398438 17.921875 6.558594 17.601562 6.800781 C 17.601562 5.679688 16.71875 4.800781 15.601562 4.800781 C 15.160156 4.800781 14.71875 4.960938 14.398438 5.199219 L 14.398438 2 C 14.398438 0.878906 13.519531 0 12.398438 0 C 11.28125 0 10.398438 0.878906 10.398438 2 L 10.398438 11.078125 C 9.519531 9.558594 7.480469 8.800781 5.921875 9.359375 C 5.71875 9.398438 5.558594 9.519531 5.359375 9.640625 C 4.761719 10.039062 4.800781 10.558594 4.800781 10.71875 C 4.761719 10.960938 4.800781 11 5.359375 11.640625 C 6.039062 12.441406 7.519531 14.121094 8.441406 15.800781 C 8.519531 15.878906 9.601562 17.640625 10.800781 18.960938 L 10.800781 20 C 10.800781 22.199219 12.601562 24 14.800781 24 L 18.800781 24 C 20.519531 24 22.320312 22.558594 22.71875 20.878906 C 22.839844 20.398438 22.960938 20.039062 23.121094 19.878906 C 23.519531 19.398438 24 18.28125 24 16.800781 L 24 10.398438 C 24 9.28125 23.121094 8.398438 22 8.398438 Z M 18.839844 23.199219 L 14.839844 23.199219 C 13.078125 23.199219 11.640625 21.761719 11.640625 20 L 11.640625 19.636719 C 11.71875 19.695312 11.796875 19.75 11.878906 19.800781 C 12.121094 20 12.320312 20.121094 12.558594 20.320312 C 12.640625 20.359375 12.71875 20.398438 12.800781 20.398438 C 12.921875 20.398438 13.039062 20.359375 13.078125 20.238281 C 13.238281 20.078125 13.199219 19.839844 13.039062 19.679688 C 12.800781 19.441406 12.558594 19.28125 12.320312 19.121094 C 12.042969 18.921875 11.765625 18.722656 11.488281 18.488281 C 10.300781 17.246094 9.160156 15.398438 9.160156 15.398438 C 8.199219 13.679688 6.679688 11.960938 5.960938 11.121094 C 5.839844 10.960938 5.679688 10.761719 5.601562 10.679688 C 5.601562 10.558594 5.601562 10.480469 5.878906 10.320312 C 6.039062 10.238281 6.160156 10.160156 6.28125 10.121094 C 7.320312 9.761719 9.039062 10.238281 9.800781 11.558594 L 10.417969 12.488281 C 10.421875 12.511719 10.429688 12.535156 10.441406 12.558594 L 10.839844 13.359375 C 10.917969 13.519531 11.039062 13.601562 11.199219 13.601562 C 11.28125 13.601562 11.320312 13.601562 11.359375 13.519531 C 11.519531 13.441406 11.601562 13.199219 11.519531 13 L 11.238281 12.4375 C 11.238281 12.421875 11.238281 12.410156 11.238281 12.398438 L 11.238281 2 C 11.238281 1.320312 11.761719 0.800781 12.441406 0.800781 C 13.121094 0.800781 13.640625 1.320312 13.640625 2 L 13.640625 13.199219 C 13.640625 13.441406 13.800781 13.601562 14.039062 13.601562 C 14.28125 13.601562 14.441406 13.441406 14.441406 13.199219 L 14.441406 6.800781 C 14.441406 6.121094 14.960938 5.601562 15.640625 5.601562 C 16.320312 5.601562 16.839844 6.121094 16.839844 6.800781 L 16.839844 12.800781 C 16.839844 13.039062 17 13.199219 17.238281 13.199219 C 17.480469 13.199219 17.640625 13.039062 17.640625 12.800781 L 17.640625 8.398438 C 17.640625 7.71875 18.160156 7.199219 18.839844 7.199219 C 19.519531 7.199219 20.039062 7.71875 20.039062 8.398438 L 20.039062 10.398438 C 20.039062 10.472656 20.054688 10.535156 20.078125 10.589844 L 20.078125 13.199219 C 20.078125 13.441406 20.238281 13.601562 20.480469 13.601562 C 20.71875 13.601562 20.878906 13.441406 20.878906 13.199219 L 20.878906 10.28125 C 20.878906 10.234375 20.875 10.191406 20.863281 10.152344 C 20.972656 9.597656 21.445312 9.199219 22.039062 9.199219 C 22.71875 9.199219 23.238281 9.71875 23.238281 10.398438 L 23.238281 16.800781 C 23.238281 17.542969 23.097656 18.144531 22.925781 18.582031 C 22.890625 18.621094 22.859375 18.667969 22.839844 18.71875 C 22.679688 19.238281 22.199219 19.359375 21.320312 19.601562 L 21.078125 19.640625 C 20.878906 19.679688 20.757812 19.921875 20.800781 20.121094 C 20.878906 20.28125 21.039062 20.398438 21.199219 20.398438 C 21.238281 20.398438 21.28125 20.398438 21.320312 20.398438 L 21.519531 20.398438 C 21.703125 20.351562 21.886719 20.300781 22.066406 20.246094 C 22.027344 20.382812 21.988281 20.527344 21.960938 20.679688 C 21.679688 22.039062 20.199219 23.199219 18.839844 23.199219 Z M 18.839844 23.199219"/>
</svg>

<svg xmlns="http://www.w3.org/2000/svg" width="32" height="32" viewBox="0 0 24 24">
    <path d="M3.602 6.398A2.78 2.78 0 0 1 .8 3.602C.8 2.039 2.039.8 3.6.8a2.78 2.78 0 0 1 2.797 2.8c0 .254-.027.497-.085.731l-.352-.531c-.121-.2-.36-.242-.563-.121-.199.12-.238.36-.117.558l.758 1.14c.031.071.086.138.16.18.043.02.086.032.133.036.02.004.043.008.066.008.082 0 .204 0 .243-.043l1.52-.84c.16-.078.237-.32.16-.52-.083-.16-.321-.238-.52-.16l-.676.34a3.86 3.86 0 0 0 .074-.777C7.2 1.602 5.602 0 3.602 0S0 1.602 0 3.602c0 2 1.602 3.597 3.602 3.597.238 0 .398-.16.398-.398 0-.242-.16-.403-.398-.403zm0 0"/>
    <path d="M22 8.398c-.441 0-.879.16-1.2.403v-.403c0-1.117-.878-2-2-2-.44 0-.878.16-1.198.403 0-1.121-.883-2-2-2-.442 0-.883.16-1.204.398V2c0-1.121-.878-2-2-2-1.117 0-2 .879-2 2v9.078C9.52 9.558 7.48 8.801 5.922 9.36c-.203.04-.363.16-.563.282-.597.398-.558.918-.558 1.078-.04.242 0 .281.558.922.68.8 2.16 2.48 3.082 4.16.079.078 1.16 1.84 2.36 3.16V20c0 2.2 1.8 4 4 4h4c1.719 0 3.52-1.441 3.918-3.121.12-.48.242-.84.402-1 .399-.48.879-1.598.879-3.078v-6.403c0-1.117-.879-2-2-2zM18.84 23.2h-4A3.206 3.206 0 0 1 11.64 20v-.363c.079.058.157.113.239.164.242.199.441.32.68.52.082.038.16.077.242.077.12 0 .238-.039.277-.16.16-.16.121-.398-.039-.558-.238-.239-.48-.399-.719-.559-.277-.2-.554-.398-.832-.633-1.187-1.242-2.328-3.09-2.328-3.09-.96-1.718-2.48-3.437-3.2-4.277a6.66 6.66 0 0 0-.358-.441c0-.121 0-.2.277-.36.16-.082.281-.16.402-.199 1.04-.36 2.758.117 3.52 1.438l.617.93a.248.248 0 0 0 .023.07l.399.8c.078.16.2.243.36.243.081 0 .12 0 .16-.082.16-.079.242-.32.16-.52l-.282-.563V2c0-.68.524-1.2 1.203-1.2.68 0 1.2.52 1.2 1.2v11.2c0 .241.16.402.398.402.242 0 .402-.16.402-.403V6.801c0-.68.52-1.2 1.2-1.2.68 0 1.199.52 1.199 1.2v6c0 .238.16.398.398.398.242 0 .403-.16.403-.398V8.398c0-.68.52-1.199 1.199-1.199.68 0 1.2.52 1.2 1.2v2c0 .074.015.136.038.19v2.61c0 .242.16.403.402.403.239 0 .399-.16.399-.403v-2.918a.449.449 0 0 0-.016-.129c.11-.554.582-.953 1.176-.953.68 0 1.2.52 1.2 1.2V16.8c0 .742-.141 1.344-.313 1.781a.45.45 0 0 0-.086.137c-.16.52-.64.64-1.52.883l-.242.039c-.2.039-.32.28-.277.48.078.16.238.277.398.277h.321c.183-.046.367-.097.546-.152-.039.137-.078.281-.105.434-.281 1.36-1.762 2.52-3.121 2.52zm0 0"/>
</svg>
